packages/vitzik-app/public/img/svg/instruments/instrument_Vibraphone.svg

<svg id="Acoustic_Grand_Keyboard" data-name="Acoustic Grand Keyboard" xmlns="http://www.w3.org/2000/svg" viewBox="0 0 48 48"><defs><style>.cls-1{fill:#d5daf3;}.cls-2{fill:#a2aee6;}.cls-3{fill:#ffc344;}.cls-4{fill:#ffe177;}.cls-5{fill:#bec6ed;}.cls-6{fill:#8795de;}.cls-7{fill:#fff;}</style></defs><path class="cls-1" d="M43.16,41H24V7.22c.72-.4.4-.72,0-.72a1.35,1.35,0,0,0-1,.72V41H4.76c-.4-.48-.73-.16-.73.24a.79.79,0,0,0,.73.76h38.4a.78.78,0,0,0,.72-.76.72.72,0,0,0-.72-.72Z"/><path class="cls-2" d="M2,7H5V46H2Z"/><path class="cls-2" d="M43,7h3V46H43Z"/><path class="cls-3" d="M10,36H9a1,1,0,0,1-1-1V1A1,1,0,0,1,9,0H10a1,1,0,0,1,1,1V35A1,1,0,0,1,10,36Z"/><path class="cls-4" d="M13,33H12a1,1,0,0,1-1-1V1a1,1,0,0,1,1-1H13a1,1,0,0,1,1,1V32A1,1,0,0,1,13,33Z"/><path class="cls-3" d="M16,31H15a1,1,0,0,1-1-1V1a1,1,0,0,1,1-1H16a1,1,0,0,1,1,1V30A1,1,0,0,1,16,31Z"/><path class="cls-4" d="M20,29H19a1,1,0,0,1-1-1V1a1,1,0,0,1,1-1H20a1,1,0,0,1,1,1V28A1,1,0,0,1,20,29Z"/><path class="cls-3" d="M23,26H22a1,1,0,0,1-1-1V1a1,1,0,0,1,1-1H23a1,1,0,0,1,1,1V25A1,1,0,0,1,23,26Z"/><path class="cls-4" d="M26,24H25a1,1,0,0,1-1-1V1a1,1,0,0,1,1-1H26a1,1,0,0,1,1,1V23A1,1,0,0,1,26,24Z"/><path class="cls-3" d="M29,22H28a1,1,0,0,1-1-1V1a1,1,0,0,1,1-1H29a1,1,0,0,1,1,1V21A1,1,0,0,1,29,22Z"/><path class="cls-4" d="M33.11,19H32a1,1,0,0,1-1-1V1a1,1,0,0,1,1-1H33a1,1,0,0,1,1,1V18a.93.93,0,0,1-.89,1Z"/><path class="cls-3" d="M36.11,17H35a1,1,0,0,1-1-1V1a1,1,0,0,1,1-1H36a1,1,0,0,1,1,1V16a.94.94,0,0,1-.89,1Z"/><path class="cls-4" d="M39.11,14H38a1,1,0,0,1-1-1V1a1,1,0,0,1,1-1H39a1,1,0,0,1,1,1V13.06a.92.92,0,0,1-.89.94Z"/><path class="cls-1" d="M47,8H1A1,1,0,0,1,0,7V4A1,1,0,0,1,1,3H47a1,1,0,0,1,1,1V7A1,1,0,0,1,47,8Z"/><path class="cls-5" d="M48,4a1,1,0,0,0-1-1H44a1,1,0,0,1,1,.88V7.12A1,1,0,0,1,44,8h3a1,1,0,0,0,1-1Z"/><path class="cls-2" d="M28.39,44H19.61a2.07,2.07,0,0,1-2.07-2.1,1,1,0,0,1,1-.9h11a1,1,0,0,1,1,.9A2.07,2.07,0,0,1,28.39,44Z"/><path class="cls-6" d="M30.58,41.9a1,1,0,0,0-1-.9H26.83a.93.93,0,0,1,.93.94A2.06,2.06,0,0,1,25.7,44h2.81A2.06,2.06,0,0,0,30.58,41.9Z"/><circle class="cls-1" cx="44.62" cy="44.62" r="3.38"/><path class="cls-7" d="M44.62,45.34a.73.73,0,1,1,.72-.77.73.73,0,0,1-.72.77Z"/><circle class="cls-1" cx="3.38" cy="44.62" r="3.38"/><path class="cls-7" d="M3.38,45.34a.72.72,0,1,1,.73-.72A.73.73,0,0,1,3.38,45.34Z"/></svg>

<?xml version="1.0" encoding="utf-8"?>
<!-- Generator: Adobe Illustrator 25.0.0, SVG Export Plug-In . SVG Version: 6.00 Build 0)  -->
<svg version="1.1" xmlns="http://www.w3.org/2000/svg" xmlns:xlink="http://www.w3.org/1999/xlink" x="0px" y="0px"
	 viewBox="0 0 48 48" style="enable-background:new 0 0 48 48;" xml:space="preserve">
<style type="text/css">
	.st0{fill:#F5DAA7;}
	.st1{fill:#EDC472;}
	.st2{fill:#BC9B5B;}
	.st3{fill:#9A6A53;}
	.st4{fill:#855B47;}
	.st5{fill:#F4E2C1;}
	.st6{fill:#F7F7F7;}
	.st7{fill:#C8C3CA;}
	.st8{fill:#B78C7A;}
	.st9{fill:#7A5341;}
	.st10{fill:#704C3B;}
	.st11{fill:#CF9875;}
	.st12{fill:#C7865B;}
	.st13{clip-path:url(#SVGID_3_);}
	.st14{clip-path:url(#SVGID_4_);fill:#FFFFFF;stroke:#231F20;stroke-miterlimit:10;}
	.st15{fill:#FFFFFF;stroke:#231F20;stroke-miterlimit:10;}
	.st16{fill:none;stroke:#000000;stroke-width:4.5;stroke-miterlimit:10;}
	.st17{fill:#463C4B;}
	.st18{fill:#555A6E;}
	.st19{fill:#F06423;}
	.st20{fill:#FAA51E;}
	.st21{fill:#D7E6F0;}
	.st22{fill:#DADADA;}
	.st23{fill:#C4C6C6;}
	.st24{fill:#EDEEEF;}
	.st25{fill:#797981;}
	.st26{fill:#5A5A63;}
	.st27{fill:#494951;}
	.st28{fill:#29BAED;}
	.st29{fill:#DD9554;}
	.st30{fill:#CC8244;}
	.st31{fill:#805333;}
	.st32{fill:#A56A43;}
	.st33{fill:#CB8252;}
	.st34{fill:#ECF0F1;}
	.st35{fill:#603E26;}
	.st36{fill:#F9EAB0;}
	.st37{fill:#F5EFCA;}
	.st38{fill:#464F5D;}
	.st39{fill:#F3D55B;}
	.st40{fill:#6F6571;}
	.st41{fill:#4B3F4E;}
	.st42{fill:#5D5360;}
	.st43{fill:#857E87;}
	.st44{fill:#ECEAEC;}
	.st45{fill:#DAD8DB;}
	.st46{fill:#B3E59F;}
	.st47{fill:#CCF49F;}
	.st48{fill:#792A47;}
	.st49{fill:#A62B38;}
	.st50{fill:#D22D28;}
	.st51{fill:#FF2F19;}
	.st52{fill:#FFFFFF;}
	.st53{fill:#202666;}
	.st54{fill:#FDE6BB;}
	.st55{fill:#FE501F;}
	.st56{fill:#FD7226;}
	.st57{fill:#FCCD76;}
	.st58{fill:#FB932C;}
	.st59{fill:#4D2857;}
	.st60{fill:#B19046;}
	.st61{fill:#F0C419;}
	.st62{fill:#24AE5F;}
	.st63{fill:#E64C3C;}
	.st64{fill:#3B97D3;}
	.st65{fill:#E74444;}
	.st66{fill:#CE3536;}
	.st67{fill:#D9DBDD;}
	.st68{fill:#E8EDF1;}
	.st69{fill:#F3DB70;}
	.st70{fill:#D5DAF3;}
	.st71{fill:#A2AEE6;}
	.st72{fill:#FFC344;}
	.st73{fill:#FFE177;}
	.st74{fill:#BEC6ED;}
	.st75{fill:#8795DE;}
	.st76{fill-rule:evenodd;clip-rule:evenodd;fill:#A46A5A;}
	.st77{fill-rule:evenodd;clip-rule:evenodd;fill:#845252;}
	.st78{fill-rule:evenodd;clip-rule:evenodd;fill:#FFD05B;}
	.st79{fill-rule:evenodd;clip-rule:evenodd;fill:#704242;}
	.st80{fill-rule:evenodd;clip-rule:evenodd;fill:#FFC244;}
	.st81{fill-rule:evenodd;clip-rule:evenodd;fill:#596C76;}
	.st82{fill-rule:evenodd;clip-rule:evenodd;fill:#465A61;}
	.st83{fill:#A46A5A;}
	.st84{fill:#607D8B;}
	.st85{fill:#9C27B0;}
	.st86{fill:#03A9F4;}
	.st87{fill:#8BC34A;}
	.st88{fill:#FFC107;}
	.st89{fill:#FF9800;}
	.st90{fill:#F44336;}
	.st91{fill:#D7CCC8;}
	.st92{fill:#F57C00;}
	.st93{fill:#F9BB4B;}
	.st94{fill:#FCF05A;}
	.st95{fill:#66342E;}
	.st96{fill:#D3843D;}
	.st97{fill:#704C55;}
	.st98{fill:#5A344B;}
	.st99{fill:#E63950;}
	.st100{fill:#EFE2DD;}
	.st101{fill:#FF435B;}
	.st102{fill:#FFF5F5;}
	.st103{fill:#9B786F;}
	.st104{fill:#925CB4;}
	.st105{fill:#814BA2;}
	.st106{fill:#6F3F8A;}
	.st107{fill:#FFD185;}
	.st108{fill:#FFBA48;}
	.st109{fill:#FF5A35;}
	.st110{fill:#FF7A3C;}
	.st111{fill:#FFE8C2;}
	.st112{fill:#4F4F4F;}
	.st113{fill:#FF3A2F;}
	.st114{fill:#353535;}
	.st115{fill:#FB4A59;}
	.st116{fill:#F82F40;}
	.st117{fill:#3F5959;}
	.st118{fill:#384848;}
	.st119{fill:#EFF5F6;}
	.st120{fill:#CBE5E7;}
	.st121{fill:#FCC16D;}
	.st122{fill:#FCB44D;}
	.st123{fill:#A66856;}
	.st124{fill:#735458;}
	.st125{fill:#FFDEA9;}
	.st126{fill:#5C4346;}
	.st127{fill:#8F5040;}
	.st128{fill:#595959;}
	.st129{fill:#7F221C;}
	.st130{fill:#913122;}
	.st131{fill:#FFEFB0;}
	.st132{fill:#DB2116;}
	.st133{fill:#883F2E;}
	.st134{fill:#A44F3E;}
	.st135{fill:#D8AA5E;}
	.st136{fill:#E9B665;}
	.st137{fill:#E19974;}
	.st138{fill:#FFEFD2;}
	.st139{fill:#D7D0D6;}
	.st140{fill:#E8AD8C;}
	.st141{fill:#6D3326;}
	.st142{fill:#BA5D4F;}
	.st143{fill:#F5A871;}
	.st144{fill:#E89A5E;}
	.st145{fill:#A34F41;}
	.st146{fill:#D68A5A;}
	.st147{fill:#FFE5C4;}
	.st148{fill:#FDD1A7;}
	.st149{fill:#873F30;}
	.st150{fill:#C86F5C;}
	.st151{fill:#6C3328;}
	.st152{fill:#54231D;}
	.st153{fill:#B5B1B3;}
	.st154{fill:#FEC93E;}
	.st155{fill:#EFB533;}
	.st156{fill:#F7A738;}
	.st157{fill:#EA952F;}
	.st158{fill:#FD6E2E;}
	.st159{fill:#EA551B;}
	.st160{fill:#F5A257;}
	.st161{fill:#DB8F52;}
	.st162{fill:#75360D;}
	.st163{fill:#FFBF7B;}
	.st164{fill:#00CCB2;}
	.st165{fill:#00AB94;}
	.st166{fill:#FEA832;}
	.st167{fill:#FF8700;}
	.st168{fill:#00EED0;}
	.st169{fill:#FFD400;}
	.st170{fill:#FDBF00;}
	.st171{fill:#08B865;}
	.st172{fill:#E41F2D;}
	.st173{fill:#FD4755;}
	.st174{fill:#FB2B3A;}
	.st175{fill:#FED2A4;}
	.st176{fill:#FFE5C2;}
	.st177{fill:#FFBD86;}
	.st178{fill:#FE99A0;}
	.st179{fill:#FD8087;}
	.st180{fill:#C57A44;}
	.st181{fill:#09A755;}
	.st182{fill:#FEDF30;}
	.st183{fill:#FED402;}
	.st184{fill:#FAC600;}
	.st185{fill:#46CC8D;}
	.st186{fill:#00C27A;}
	.st187{fill:#FE7701;}
	.st188{fill:#FE860A;}
	.st189{fill:#C41926;}
	.st190{fill:#E89C5D;}
	.st191{fill:#F4B37D;}
	.st192{fill:#E8626C;}
	.st193{fill:#40C6C2;}
	.st194{fill:#FFC999;}
	.st195{fill:#4A4A68;}
	.st196{fill:#333356;}
	.st197{fill:#EDEDED;}
	.st198{fill:#C9C9C9;}
	.st199{fill:#FF9900;}
	.st200{fill:#FFCE00;}
	.st201{fill:#FBBD00;}
	.st202{fill:#ED8100;}
	.st203{fill:#FFE431;}
	.st204{fill:#FF9F00;}
	.st205{fill:#FFE666;}
	.st206{fill:#FFBF00;}
	.st207{fill:#FCCD31;}
	.st208{fill:#F2B016;}
	.st209{fill:#4A4D4F;}
	.st210{fill:#D3CBC2;}
	.st211{fill:#6D7072;}
	.st212{fill:#BAAFA6;}
	.st213{fill:#888C8E;}
	.st214{fill:#B4B4B4;}
	.st215{fill:#FFE999;}
	.st216{fill:#FFCF3B;}
	.st217{fill:#C1C1C1;}
	.st218{fill:#FFBC19;}
	.st219{fill:#94E6FF;}
	.st220{fill:#315F83;}
	.st221{fill:#267EA8;}
	.st222{fill:#3B3F5F;}
	.st223{fill:#D8F2FB;}
	.st224{fill:#35495E;}
	.st225{fill:#556080;}
	.st226{fill:#E4C05C;}
	.st227{fill:#E4C05C;stroke:#E4C05C;stroke-width:2;stroke-linecap:round;stroke-linejoin:round;stroke-miterlimit:10;}
	.st228{fill:#B57F5F;}
	.st229{fill:#966A5B;}
	.st230{fill:#FFD15B;}
	.st231{fill:#A5C3DC;}
	.st232{fill:#8697CB;}
	.st233{fill:#E0E0E0;}
	.st234{fill:#CCCCCC;}
	.st235{fill:#8E8E8E;}
	.st236{fill:#A0A0A0;}
	.st237{fill:#E13732;}
	.st238{fill:#F05055;}
	.st239{fill:#D24605;}
	.st240{fill:#FFCE53;}
	.st241{fill:#FFB833;}
	.st242{fill:#4999D1;}
	.st243{fill:#43AAF0;}
	.st244{fill:#FF2E23;}
	.st245{fill:#FF4A26;}
	.st246{fill:#C6805D;}
	.st247{fill:#77CC7D;}
	.st248{fill:#52BD7E;}
	.st249{fill:#98DB7C;}
	.st250{fill:#D48C64;}
	.st251{fill:#FFD18D;}
	.st252{fill:#FBBD80;}
	.st253{fill:#F3B573;}
	.st254{fill:#434A54;}
	.st255{fill:#DA4453;}
	.st256{fill:#FFCE54;}
	.st257{fill:#ED5564;}
	.st258{fill-rule:evenodd;clip-rule:evenodd;fill:#4BC3EF;}
	.st259{fill-rule:evenodd;clip-rule:evenodd;fill:#1BADDE;}
	.st260{fill-rule:evenodd;clip-rule:evenodd;fill:#DBD8DB;}
	.st261{fill-rule:evenodd;clip-rule:evenodd;fill:#C9BFC8;}
	.st262{fill:#421815;}
	.st263{fill:#FCB982;}
	.st264{fill:#FDDBBF;}
	.st265{fill:#FCCA9F;}
	.st266{fill:#C6865C;}
	.st267{fill:#B16E3D;}
	.st268{fill:#454545;}
	.st269{fill:#EFECEF;}
	.st270{fill:#E2DFE2;}
	.st271{fill:#3F3736;}
	.st272{fill:#C4755B;}
	.st273{fill:#FFE3A1;}
	.st274{fill-rule:evenodd;clip-rule:evenodd;fill:#D48C64;}
	.st275{fill:#DBD8DB;}
	.st276{fill:#BB5D4C;}
	.st277{fill:#465A61;}
	.st278{fill:#596C76;}
	.st279{fill:#E5E1E5;}
	.st280{fill:#7A8C98;}
	.st281{fill:#FEDBA6;}
	.st282{fill:#EAB14D;}
	.st283{fill:#617881;}
	.st284{fill:#E28086;}
	.st285{fill:#DD636E;}
	.st286{fill:#FFE07D;}
	.st287{fill:#ECBE6B;}
	.st288{fill:#E9EDF5;}
	.st289{fill:#CDD2E1;}
	.st290{fill:#FFAA00;}
	.st291{fill:#FF9500;}
	.st292{fill:#555A65;}
	.st293{fill:#333940;}
	.st294{fill:#E6A373;}
	.st295{fill:#CC8552;}
	.st296{fill:#FFDF40;}
	.st297{fill:#FFBE40;}
	.st298{fill:#FF9F40;}
	.st299{fill:#F77E00;}
	.st300{fill:#FFF04A;}
	.st301{fill:#00DDC1;}
	.st302{fill:#A24603;}
	.st303{fill:#F2D813;}
	.st304{fill:#803602;}
	.st305{fill:#3A3A3A;}
	.st306{fill:#AFAFAF;}
	.st307{fill:#686868;}
	.st308{fill:#925A15;}
	.st309{fill:#F3F2F6;}
	.st310{fill:#BF7D5A;}
	.st311{fill:#AA6256;}
	.st312{fill:#894E46;}
	.st313{fill:#DBA660;}
	.st314{fill:#E49542;}
	.st315{fill:#F9EFDA;}
	.st316{fill:#756E78;}
	.st317{fill:#665E66;}
	.st318{fill:#F9F6F9;}
	.st319{fill:#BC6C59;}
	.st320{fill:#994B39;}
	.st321{fill:#FEEC96;}
	.st322{fill:#F5DB64;}
	.st323{fill:#5D5E69;}
	.st324{fill:#FFE09F;}
	.st325{fill:#ECBD83;}
	.st326{fill:#F6D190;}
	.st327{fill:#FF8086;}
	.st328{fill:#E5646E;}
	.st329{fill:#357DA3;}
	.st330{fill:#F48A3B;}
	.st331{fill:#FFC233;}
	.st332{fill:#CDDEE0;}
	.st333{fill:#C8C5C9;}
	.st334{fill:#785353;}
	.st335{fill:#6E4848;}
	.st336{fill:#B7E4F8;}
	.st337{fill:#93D6F4;}
	.st338{fill:#DBF1FB;}
	.st339{fill:#8DCAFC;}
	.st340{fill:#64B9FC;}
	.st341{fill:#C4E1FF;}
	.st342{fill:#B5DBFD;}
	.st343{fill:#FEE7C9;}
	.st344{fill:#FFD496;}
	.st345{fill:#A3E440;}
	.st346{fill:#99D53B;}
	.st347{fill:#BCEA73;}
	.st348{fill:#C76D3D;}
	.st349{fill:#AA5E33;}
	.st350{fill:#D67F4F;}
	.st351{fill:#8DC637;}
	.st352{fill:#A79BA7;}
	.st353{fill:#7A6D79;}
	.st354{fill:#C4E2FF;}
	.st355{fill:#60B7FF;}
	.st356{fill:#B3DAFE;}
	.st357{fill:#F3F0F3;}
	.st358{fill:#EFEDEF;}
	.st359{fill:#CBC4CC;}
	.st360{fill:#26A6FE;}
	.st361{fill:#D2555A;}
	.st362{fill:#FF6464;}
	.st363{fill:#D7DEED;}
	.st364{fill:#B8BFD4;}
	.st365{fill:#959CB3;}
	.st366{fill:#F8C460;}
	.st367{fill:#FAAF42;}
	.st368{fill:#7A838B;}
	.st369{fill:#5D6972;}
	.st370{fill:#A7D0E1;}
	.st371{fill:#80BBCE;}
	.st372{fill:#FFD8CA;}
	.st373{fill:#FFBFAE;}
	.st374{fill:#FFE5D8;}
	.st375{fill:#E5EEF9;}
	.st376{fill:#56595E;}
	.st377{fill:#7F8284;}
	.st378{fill:#A5A5A4;}
	.st379{fill:#95A5A5;}
	.st380{fill:#BDC3C7;}
	.st381{fill:#7F8C8D;}
</style>
<g id="Acoustic_Grand_Keyboard">
	<g>
		<g>
			<path class="st70" d="M43.16,41H24V7.22c0.72-0.4,0.4-0.72,0-0.72c-0.4,0-0.72,0.32-1,0.72V41H4.76
				c-0.4-0.48-0.72-0.16-0.72,0.24c0,0.4,0.32,0.72,0.72,0.76h38.4c0.4-0.04,0.72-0.36,0.72-0.76c0-0.4-0.32-0.72-0.72-0.72
				L43.16,41z"/>
			<path class="st71" d="M2,7h3v39H2L2,7z"/>
			<path class="st71" d="M43,7h3v39h-3V7z"/>
			<g>
				<g>
					<g>
						<g>
							<path class="st72" d="M10.03,36H8.97C8.43,36,8,35.57,8,35.03V0.97C8,0.43,8.43,0,8.97,0h1.07C10.57,0,11,0.43,11,0.97v34.07
								C11,35.57,10.57,36,10.03,36z"/>
						</g>
					</g>
					<g>
						<g>
							<path class="st73" d="M13.03,33h-1.07C11.43,33,11,32.57,11,32.03V0.97C11,0.43,11.43,0,11.97,0h1.07
								C13.57,0,14,0.43,14,0.97v31.07C14,32.57,13.57,33,13.03,33z"/>
						</g>
					</g>
					<g>
						<g>
							<path class="st72" d="M16.03,31h-1.07C14.43,31,14,30.57,14,30.03V0.97C14,0.43,14.43,0,14.97,0h1.07
								C16.57,0,17,0.43,17,0.97v29.07C17,30.57,16.57,31,16.03,31z"/>
						</g>
					</g>
					<g>
						<g>
							<path class="st73" d="M20.03,29h-1.07C18.43,29,18,28.57,18,28.03V0.97C18,0.43,18.43,0,18.97,0h1.07
								C20.57,0,21,0.43,21,0.97v27.07C21,28.57,20.57,29,20.03,29z"/>
						</g>
					</g>
					<g>
						<g>
							<path class="st72" d="M23.03,26h-1.07C21.43,26,21,25.57,21,25.03V0.97C21,0.43,21.43,0,21.97,0h1.07
								C23.57,0,24,0.43,24,0.97v24.07C24,25.57,23.57,26,23.03,26z"/>
						</g>
					</g>
					<g>
						<g>
							<path class="st73" d="M26.03,24h-1.07C24.43,24,24,23.57,24,23.03V0.97C24,0.43,24.43,0,24.97,0h1.07
								C26.57,0,27,0.43,27,0.97v22.07C27,23.57,26.57,24,26.03,24z"/>
						</g>
					</g>
					<g>
						<g>
							<path class="st72" d="M29.03,22h-1.07C27.43,22,27,21.57,27,21.03V0.97C27,0.43,27.43,0,27.97,0h1.07
								C29.57,0,30,0.43,30,0.97v20.07C30,21.57,29.57,22,29.03,22z"/>
						</g>
					</g>
					<g>
						<g>
							<path class="st73" d="M33.11,19h-1.14C31.43,19,31,18.57,31,18.03V0.97C31,0.43,31.43,0,31.97,0h1.07
								C33.57,0,34,0.43,34,0.97v17.08C34,18.57,33.6,19,33.11,19L33.11,19z"/>
						</g>
					</g>
					<g>
						<g>
							<path class="st72" d="M36.11,17h-1.14C34.43,17,34,16.57,34,16.03V0.97C34,0.43,34.43,0,34.97,0h1.07
								C36.57,0,37,0.43,37,0.97v15.06C37,16.56,36.6,17,36.11,17L36.11,17z"/>
						</g>
					</g>
					<g>
						<g>
							<path class="st73" d="M39.11,14h-1.14C37.43,14,37,13.57,37,13.03V0.97C37,0.43,37.43,0,37.97,0h1.07
								C39.57,0,40,0.43,40,0.97v12.1C40,13.58,39.6,14,39.11,14L39.11,14z"/>
						</g>
					</g>
				</g>
				<path class="st70" d="M47.03,8H0.97C0.43,8,0,7.57,0,7.03V3.97C0,3.43,0.43,3,0.97,3h46.07C47.57,3,48,3.43,48,3.97v3.07
					C48,7.57,47.57,8,47.03,8z"/>
				<path class="st74" d="M48,3.97C48,3.43,47.57,3,47.03,3H44c0.55,0,1,0.4,1,0.88v3.23C45,7.6,44.55,8,44,8h3.03
					C47.57,8,48,7.57,48,7.03V3.97z"/>
			</g>
			<path class="st71" d="M28.39,44h-8.79c-1.15,0-2.08-0.94-2.06-2.1C17.55,41.39,18,41,18.51,41h10.98c0.51,0,0.95,0.39,0.96,0.9
				C30.48,43.06,29.54,44,28.39,44z"/>
			<path class="st75" d="M30.58,41.9c-0.01-0.51-0.46-0.9-0.96-0.9h-2.79c0.52,0,0.94,0.42,0.94,0.94c0,1.14-0.92,2.06-2.06,2.06
				h2.81C29.67,44,30.6,43.06,30.58,41.9z"/>
			<g>
				<g>
					<ellipse class="st70" cx="44.62" cy="44.62" rx="3.38" ry="3.38"/>
					<g>
						<path class="st52" d="M44.62,45.34c-0.39,0-0.72-0.33-0.72-0.72c0-0.4,0.33-0.73,0.73-0.72c0.38,0,0.69,0.3,0.72,0.68
							C45.37,44.98,45.03,45.34,44.62,45.34L44.62,45.34z"/>
					</g>
				</g>
				<g>
					<ellipse class="st70" cx="3.38" cy="44.62" rx="3.38" ry="3.38"/>
					<g>
						<path class="st52" d="M3.38,45.34c-0.41,0-0.75-0.36-0.72-0.77c0.03-0.39,0.38-0.7,0.77-0.67c0.38,0.03,0.68,0.34,0.68,0.72
							C4.11,45.01,3.78,45.34,3.38,45.34z"/>
					</g>
				</g>
			</g>
		</g>
	</g>
</g>
<g id="Layer_2">
</g>
</svg>
